images/6604906.svg

<?xml version="1.0" encoding="UTF-8"?>
<svg xmlns="http://www.w3.org/2000/svg" xmlns:xlink="http://www.w3.org/1999/xlink" width="300pt" height="300pt" viewBox="0 0 300 300" version="1.1">
<defs>
<g>
<symbol overflow="visible" id="glyph0-0">
<path style="stroke:none;" d="M 0.453125 1.59375 L 0.453125 -6.34375 L 4.953125 -6.34375 L 4.953125 1.59375 Z M 0.953125 1.09375 L 4.453125 1.09375 L 4.453125 -5.84375 L 0.953125 -5.84375 Z M 0.953125 1.09375 "/>
</symbol>
<symbol overflow="visible" id="glyph0-1">
<path style="stroke:none;" d="M 0.890625 -6.5625 L 2.078125 -6.5625 L 4.984375 -1.078125 L 4.984375 -6.5625 L 5.84375 -6.5625 L 5.84375 0 L 4.65625 0 L 1.75 -5.484375 L 1.75 0 L 0.890625 0 Z M 0.890625 -6.5625 "/>
</symbol>
<symbol overflow="visible" id="glyph0-2">
<path style="stroke:none;" d="M 0.890625 -6.5625 L 1.765625 -6.5625 L 1.765625 -3.875 L 5 -3.875 L 5 -6.5625 L 5.890625 -6.5625 L 5.890625 0 L 5 0 L 5 -3.125 L 1.765625 -3.125 L 1.765625 0 L 0.890625 0 Z M 0.890625 -6.5625 "/>
</symbol>
<symbol overflow="visible" id="glyph0-3">
<path style="stroke:none;" d="M 3.546875 -5.953125 C 2.898438 -5.953125 2.382812 -5.710938 2 -5.234375 C 1.625 -4.753906 1.4375 -4.101562 1.4375 -3.28125 C 1.4375 -2.445312 1.625 -1.789062 2 -1.3125 C 2.382812 -0.832031 2.898438 -0.59375 3.546875 -0.59375 C 4.191406 -0.59375 4.703125 -0.832031 5.078125 -1.3125 C 5.453125 -1.789062 5.640625 -2.445312 5.640625 -3.28125 C 5.640625 -4.101562 5.453125 -4.753906 5.078125 -5.234375 C 4.703125 -5.710938 4.191406 -5.953125 3.546875 -5.953125 Z M 3.546875 -6.6875 C 4.460938 -6.6875 5.195312 -6.375 5.75 -5.75 C 6.300781 -5.132812 6.578125 -4.3125 6.578125 -3.28125 C 6.578125 -2.238281 6.300781 -1.410156 5.75 -0.796875 C 5.195312 -0.179688 4.460938 0.125 3.546875 0.125 C 2.617188 0.125 1.878906 -0.179688 1.328125 -0.796875 C 0.773438 -1.410156 0.5 -2.238281 0.5 -3.28125 C 0.5 -4.3125 0.773438 -5.132812 1.328125 -5.75 C 1.878906 -6.375 2.617188 -6.6875 3.546875 -6.6875 Z M 3.546875 -6.6875 "/>
</symbol>
<symbol overflow="visible" id="glyph0-4">
<path style="stroke:none;" d="M 5.796875 -6.0625 L 5.796875 -5.125 C 5.492188 -5.394531 5.171875 -5.597656 4.828125 -5.734375 C 4.492188 -5.878906 4.140625 -5.953125 3.765625 -5.953125 C 3.015625 -5.953125 2.4375 -5.722656 2.03125 -5.265625 C 1.632812 -4.804688 1.4375 -4.144531 1.4375 -3.28125 C 1.4375 -2.414062 1.632812 -1.753906 2.03125 -1.296875 C 2.4375 -0.835938 3.015625 -0.609375 3.765625 -0.609375 C 4.140625 -0.609375 4.492188 -0.675781 4.828125 -0.8125 C 5.171875 -0.945312 5.492188 -1.15625 5.796875 -1.4375 L 5.796875 -0.5 C 5.484375 -0.289062 5.15625 -0.132812 4.8125 -0.03125 C 4.46875 0.0703125 4.097656 0.125 3.703125 0.125 C 2.710938 0.125 1.929688 -0.175781 1.359375 -0.78125 C 0.785156 -1.394531 0.5 -2.226562 0.5 -3.28125 C 0.5 -4.332031 0.785156 -5.160156 1.359375 -5.765625 C 1.929688 -6.378906 2.710938 -6.6875 3.703125 -6.6875 C 4.097656 -6.6875 4.46875 -6.632812 4.8125 -6.53125 C 5.164062 -6.425781 5.492188 -6.269531 5.796875 -6.0625 Z M 5.796875 -6.0625 "/>
</symbol>
<symbol overflow="visible" id="glyph0-5">
<path style="stroke:none;" d="M 0.84375 -6.84375 L 1.65625 -6.84375 L 1.65625 0 L 0.84375 0 Z M 0.84375 -6.84375 "/>
</symbol>
</g>
</defs>
<g id="surface55041">
<rect x="0" y="0" width="300" height="300" style="fill:rgb(100%,100%,100%);fill-opacity:1;stroke:none;"/>
<path style="fill:none;stroke-width:1;stroke-linecap:butt;stroke-linejoin:miter;stroke:rgb(0%,0%,0%);stroke-opacity:1;stroke-miterlimit:10;" d="M 187.773438 160.328125 L 187.773438 160.328125 M 188.972656 157.578125 L 187.957031 157.335938 M 190.167969 154.828125 L 188.140625 154.339844 M 191.367188 152.078125 L 188.324219 151.347656 M 192.566406 149.328125 L 188.507812 148.351562 M 193.761719 146.578125 L 188.691406 145.359375 M 194.960938 143.824219 L 188.875 142.363281 M 196.15625 141.074219 L 189.058594 139.371094 M 196.675781 139.878906 L 189.140625 138.070312 "/>
<path style="fill:none;stroke-width:1.2;stroke-linecap:butt;stroke-linejoin:miter;stroke:rgb(0%,0%,0%);stroke-opacity:1;stroke-miterlimit:10;" d="M 187.773438 160.328125 L 167.480469 168.730469 "/>
<path style="fill:none;stroke-width:1.2;stroke-linecap:butt;stroke-linejoin:miter;stroke:rgb(0%,0%,100%);stroke-opacity:1;stroke-miterlimit:10;" d="M 202.035156 177.035156 L 194.90625 168.683594 "/>
<path style="fill:none;stroke-width:1.2;stroke-linecap:butt;stroke-linejoin:miter;stroke:rgb(0%,0%,0%);stroke-opacity:1;stroke-miterlimit:10;" d="M 194.90625 168.683594 L 187.773438 160.328125 "/>
<path style="fill:none;stroke-width:1.2;stroke-linecap:butt;stroke-linejoin:miter;stroke:rgb(0%,0%,0%);stroke-opacity:1;stroke-miterlimit:10;" d="M 167.480469 168.730469 L 169.199219 190.625 "/>
<path style=" stroke:none;fill-rule:nonzero;fill:rgb(0%,0%,0%);fill-opacity:1;" d="M 167.480469 168.730469 L 150.78125 153.945312 L 146.730469 160.554688 Z M 167.480469 168.730469 "/>
<path style="fill:none;stroke-width:1.2;stroke-linecap:butt;stroke-linejoin:miter;stroke:rgb(0%,0%,0%);stroke-opacity:1;stroke-miterlimit:10;" d="M 169.199219 190.625 L 190.554688 195.757812 "/>
<path style="fill:none;stroke-width:1.2;stroke-linecap:butt;stroke-linejoin:miter;stroke:rgb(0%,0%,0%);stroke-opacity:1;stroke-miterlimit:10;" d="M 190.554688 195.757812 L 196.292969 186.398438 "/>
<path style="fill:none;stroke-width:1.2;stroke-linecap:butt;stroke-linejoin:miter;stroke:rgb(0%,0%,100%);stroke-opacity:1;stroke-miterlimit:10;" d="M 196.292969 186.398438 L 202.035156 177.035156 "/>
<path style="fill:none;stroke-width:1.2;stroke-linecap:butt;stroke-linejoin:miter;stroke:rgb(0%,0%,100%);stroke-opacity:1;stroke-miterlimit:10;" d="M 202.035156 177.035156 L 212.984375 176.175781 "/>
<path style="fill:none;stroke-width:1.2;stroke-linecap:butt;stroke-linejoin:miter;stroke:rgb(0%,0%,0%);stroke-opacity:1;stroke-miterlimit:10;" d="M 212.984375 176.175781 L 223.933594 175.316406 "/>
<path style=" stroke:none;fill-rule:nonzero;fill:rgb(100%,100%,100%);fill-opacity:1;" d="M 199.035156 171.535156 L 206.035156 171.535156 L 206.035156 182.535156 L 199.035156 182.535156 Z M 199.035156 171.535156 "/>
<g style="fill:rgb(0%,0%,100%);fill-opacity:1;">
  <use xlink:href="#glyph0-1" x="199.035156" y="180.198242"/>
</g>
<path style="fill:none;stroke-width:1.2;stroke-linecap:butt;stroke-linejoin:miter;stroke:rgb(0%,0%,0%);stroke-opacity:1;stroke-miterlimit:10;" d="M 223.933594 175.316406 L 233.394531 155.496094 "/>
<path style="fill:none;stroke-width:1.2;stroke-linecap:butt;stroke-linejoin:miter;stroke:rgb(0%,0%,0%);stroke-opacity:1;stroke-miterlimit:10;" d="M 233.394531 155.496094 L 255.289062 153.777344 "/>
<path style="fill:none;stroke-width:1.2;stroke-linecap:butt;stroke-linejoin:miter;stroke:rgb(0%,0%,0%);stroke-opacity:1;stroke-miterlimit:10;" d="M 235.179688 150.171875 L 252.695312 148.796875 "/>
<path style="fill:none;stroke-width:1.2;stroke-linecap:butt;stroke-linejoin:miter;stroke:rgb(0%,0%,0%);stroke-opacity:1;stroke-miterlimit:10;" d="M 220.957031 137.390625 L 233.394531 155.496094 "/>
<path style="fill:none;stroke-width:1.2;stroke-linecap:butt;stroke-linejoin:miter;stroke:rgb(0%,0%,0%);stroke-opacity:1;stroke-miterlimit:10;" d="M 255.289062 153.777344 L 264.75 133.957031 "/>
<path style="fill:none;stroke-width:1.2;stroke-linecap:butt;stroke-linejoin:miter;stroke:rgb(0%,0%,0%);stroke-opacity:1;stroke-miterlimit:10;" d="M 264.75 133.957031 L 252.3125 115.851562 "/>
<path style="fill:none;stroke-width:1.2;stroke-linecap:butt;stroke-linejoin:miter;stroke:rgb(0%,0%,0%);stroke-opacity:1;stroke-miterlimit:10;" d="M 259.246094 135.070312 L 249.296875 120.589844 "/>
<path style="fill:none;stroke-width:1.2;stroke-linecap:butt;stroke-linejoin:miter;stroke:rgb(0%,0%,0%);stroke-opacity:1;stroke-miterlimit:10;" d="M 252.3125 115.851562 L 230.417969 117.570312 "/>
<path style="fill:none;stroke-width:1.2;stroke-linecap:butt;stroke-linejoin:miter;stroke:rgb(0%,0%,0%);stroke-opacity:1;stroke-miterlimit:10;" d="M 230.417969 117.570312 L 220.957031 137.390625 "/>
<path style="fill:none;stroke-width:1.2;stroke-linecap:butt;stroke-linejoin:miter;stroke:rgb(0%,0%,0%);stroke-opacity:1;stroke-miterlimit:10;" d="M 234.136719 121.777344 L 226.566406 137.636719 "/>
<path style="fill:none;stroke-width:1.2;stroke-linecap:butt;stroke-linejoin:miter;stroke:rgb(0%,0%,100%);stroke-opacity:1;stroke-miterlimit:10;" d="M 148.757812 157.25 L 139.105469 162.488281 "/>
<path style="fill:none;stroke-width:1.2;stroke-linecap:butt;stroke-linejoin:miter;stroke:rgb(0%,0%,0%);stroke-opacity:1;stroke-miterlimit:10;" d="M 139.105469 162.488281 L 129.453125 167.722656 "/>
<path style=" stroke:none;fill-rule:nonzero;fill:rgb(100%,100%,100%);fill-opacity:1;" d="M 141.757812 151.75 L 155.757812 151.75 L 155.757812 162.75 L 141.757812 162.75 Z M 141.757812 151.75 "/>
<g style="fill:rgb(0%,0%,100%);fill-opacity:1;">
  <use xlink:href="#glyph0-1" x="141.757812" y="160.413086"/>
  <use xlink:href="#glyph0-2" x="148.735352" y="160.413086"/>
</g>
<path style="fill:none;stroke-width:1.2;stroke-linecap:butt;stroke-linejoin:miter;stroke:rgb(0%,0%,0%);stroke-opacity:1;stroke-miterlimit:10;" d="M 126.867188 167.65625 L 126.578125 178.632812 "/>
<path style="fill:none;stroke-width:1.2;stroke-linecap:butt;stroke-linejoin:miter;stroke:rgb(100%,0%,0%);stroke-opacity:1;stroke-miterlimit:10;" d="M 126.578125 178.632812 L 126.289062 189.613281 "/>
<path style="fill:none;stroke-width:1.2;stroke-linecap:butt;stroke-linejoin:miter;stroke:rgb(0%,0%,0%);stroke-opacity:1;stroke-miterlimit:10;" d="M 132.035156 167.792969 L 131.746094 178.769531 "/>
<path style="fill:none;stroke-width:1.2;stroke-linecap:butt;stroke-linejoin:miter;stroke:rgb(100%,0%,0%);stroke-opacity:1;stroke-miterlimit:10;" d="M 131.746094 178.769531 L 131.453125 189.75 "/>
<path style="fill:none;stroke-width:1.2;stroke-linecap:butt;stroke-linejoin:miter;stroke:rgb(0%,0%,0%);stroke-opacity:1;stroke-miterlimit:10;" d="M 129.453125 167.722656 L 110.726562 156.242188 "/>
<path style=" stroke:none;fill-rule:nonzero;fill:rgb(100%,100%,100%);fill-opacity:1;" d="M 124.871094 184.179688 L 132.871094 184.179688 L 132.871094 195.179688 L 124.871094 195.179688 Z M 124.871094 184.179688 "/>
<g style="fill:rgb(100%,0%,0%);fill-opacity:1;">
  <use xlink:href="#glyph0-3" x="124.871094" y="192.842773"/>
</g>
<path style="fill:none;stroke-width:1.2;stroke-linecap:butt;stroke-linejoin:miter;stroke:rgb(0%,0%,0%);stroke-opacity:1;stroke-miterlimit:10;" d="M 110.726562 156.242188 L 111.308594 134.289062 "/>
<path style="fill:none;stroke-width:1.2;stroke-linecap:butt;stroke-linejoin:miter;stroke:rgb(0%,0%,0%);stroke-opacity:1;stroke-miterlimit:10;" d="M 105.621094 153.910156 L 106.085938 136.347656 "/>
<path style="fill:none;stroke-width:1.2;stroke-linecap:butt;stroke-linejoin:miter;stroke:rgb(0%,0%,0%);stroke-opacity:1;stroke-miterlimit:10;" d="M 91.421875 166.71875 L 110.726562 156.242188 "/>
<path style="fill:none;stroke-width:1.2;stroke-linecap:butt;stroke-linejoin:miter;stroke:rgb(0%,0%,0%);stroke-opacity:1;stroke-miterlimit:10;" d="M 111.308594 134.289062 L 92.585938 122.804688 "/>
<path style="fill:none;stroke-width:1.2;stroke-linecap:butt;stroke-linejoin:miter;stroke:rgb(0%,0%,0%);stroke-opacity:1;stroke-miterlimit:10;" d="M 92.585938 122.804688 L 73.277344 133.28125 "/>
<path style="fill:none;stroke-width:1.2;stroke-linecap:butt;stroke-linejoin:miter;stroke:rgb(0%,0%,0%);stroke-opacity:1;stroke-miterlimit:10;" d="M 93.117188 128.394531 L 77.675781 136.777344 "/>
<path style="fill:none;stroke-width:1.2;stroke-linecap:butt;stroke-linejoin:miter;stroke:rgb(0%,0%,0%);stroke-opacity:1;stroke-miterlimit:10;" d="M 92.585938 122.804688 L 92.875 111.828125 "/>
<path style="fill:none;stroke-width:1.2;stroke-linecap:butt;stroke-linejoin:miter;stroke:rgb(0%,80%,0%);stroke-opacity:1;stroke-miterlimit:10;" d="M 92.875 111.828125 L 93.164062 100.851562 "/>
<path style="fill:none;stroke-width:1.2;stroke-linecap:butt;stroke-linejoin:miter;stroke:rgb(0%,0%,0%);stroke-opacity:1;stroke-miterlimit:10;" d="M 73.277344 133.28125 L 72.699219 155.238281 "/>
<path style="fill:none;stroke-width:1.2;stroke-linecap:butt;stroke-linejoin:miter;stroke:rgb(0%,0%,0%);stroke-opacity:1;stroke-miterlimit:10;" d="M 73.277344 133.28125 L 63.917969 127.539062 "/>
<path style="fill:none;stroke-width:1.2;stroke-linecap:butt;stroke-linejoin:miter;stroke:rgb(0%,0%,100%);stroke-opacity:1;stroke-miterlimit:10;" d="M 63.917969 127.539062 L 54.554688 121.800781 "/>
<path style="fill:none;stroke-width:1.2;stroke-linecap:butt;stroke-linejoin:miter;stroke:rgb(0%,0%,0%);stroke-opacity:1;stroke-miterlimit:10;" d="M 72.699219 155.238281 L 91.421875 166.71875 "/>
<path style="fill:none;stroke-width:1.2;stroke-linecap:butt;stroke-linejoin:miter;stroke:rgb(0%,0%,0%);stroke-opacity:1;stroke-miterlimit:10;" d="M 77.273438 151.980469 L 92.25 161.164062 "/>
<path style="fill:none;stroke-width:1.2;stroke-linecap:butt;stroke-linejoin:miter;stroke:rgb(0%,0%,0%);stroke-opacity:1;stroke-miterlimit:10;" d="M 91.421875 166.71875 L 91.132812 177.695312 "/>
<path style="fill:none;stroke-width:1.2;stroke-linecap:butt;stroke-linejoin:miter;stroke:rgb(100%,0%,0%);stroke-opacity:1;stroke-miterlimit:10;" d="M 91.132812 177.695312 L 90.84375 188.675781 "/>
<path style="fill:none;stroke-width:1.2;stroke-linecap:butt;stroke-linejoin:miter;stroke:rgb(100%,0%,0%);stroke-opacity:1;stroke-miterlimit:10;" d="M 90.84375 188.675781 L 81.191406 193.914062 "/>
<path style="fill:none;stroke-width:1.2;stroke-linecap:butt;stroke-linejoin:miter;stroke:rgb(0%,0%,0%);stroke-opacity:1;stroke-miterlimit:10;" d="M 81.191406 193.914062 L 71.539062 199.148438 "/>
<path style=" stroke:none;fill-rule:nonzero;fill:rgb(100%,100%,100%);fill-opacity:1;" d="M 86.84375 183.175781 L 94.84375 183.175781 L 94.84375 194.175781 L 86.84375 194.175781 Z M 86.84375 183.175781 "/>
<g style="fill:rgb(100%,0%,0%);fill-opacity:1;">
  <use xlink:href="#glyph0-3" x="86.84375" y="191.838867"/>
</g>
<path style="fill:none;stroke-width:1.2;stroke-linecap:butt;stroke-linejoin:miter;stroke:rgb(0%,0%,100%);stroke-opacity:1;stroke-miterlimit:10;" d="M 54.554688 121.800781 L 44.902344 127.039062 "/>
<path style="fill:none;stroke-width:1.2;stroke-linecap:butt;stroke-linejoin:miter;stroke:rgb(0%,0%,0%);stroke-opacity:1;stroke-miterlimit:10;" d="M 44.902344 127.039062 L 35.25 132.277344 "/>
<path style=" stroke:none;fill-rule:nonzero;fill:rgb(100%,100%,100%);fill-opacity:1;" d="M 47.554688 116.300781 L 61.554688 116.300781 L 61.554688 127.300781 L 47.554688 127.300781 Z M 47.554688 116.300781 "/>
<g style="fill:rgb(0%,0%,100%);fill-opacity:1;">
  <use xlink:href="#glyph0-1" x="47.554688" y="124.963867"/>
  <use xlink:href="#glyph0-2" x="54.532227" y="124.963867"/>
</g>
<path style=" stroke:none;fill-rule:nonzero;fill:rgb(100%,100%,100%);fill-opacity:1;" d="M 88.164062 95.351562 L 98.164062 95.351562 L 98.164062 106.351562 L 88.164062 106.351562 Z M 88.164062 95.351562 "/>
<g style="fill:rgb(0%,80%,0%);fill-opacity:1;">
  <use xlink:href="#glyph0-4" x="88.164062" y="104.014648"/>
  <use xlink:href="#glyph0-5" x="94.677734" y="104.014648"/>
</g>
</g>
</svg>

<svg xmlns="http://www.w3.org/2000/svg" xmlns:xlink="http://www.w3.org/1999/xlink" width="300pt" height="300pt" viewBox="0 0 300 300"><defs><symbol overflow="visible"><path d="M.453 1.594v-7.938h4.5v7.938zm.5-.5h3.5v-6.938h-3.5zm0 0"/></symbol><symbol overflow="visible" id="a"><path d="M.89-6.563H2.08l2.906 5.485v-5.484h.86V0H4.656L1.75-5.484V0H.89zm0 0"/></symbol><symbol overflow="visible" id="b"><path d="M.89-6.563h.876v2.688H5v-2.688h.89V0H5v-3.125H1.766V0H.89zm0 0"/></symbol><symbol overflow="visible" id="c"><path d="M3.547-5.953c-.65 0-1.164.242-1.547.72-.375.48-.563 1.13-.563 1.952 0 .835.188 1.49.563 1.967.383.48.898.72 1.547.72.644 0 1.156-.24 1.53-.72.376-.476.564-1.132.564-1.968 0-.822-.187-1.474-.562-1.954-.375-.477-.887-.72-1.53-.72zm0-.734c.914 0 1.648.312 2.203.937.55.617.828 1.438.828 2.47 0 1.042-.277 1.87-.828 2.483-.555.617-1.29.922-2.203.922-.93 0-1.668-.305-2.22-.922C.774-1.41.5-2.237.5-3.28c0-1.033.273-1.853.828-2.47.55-.625 1.29-.938 2.22-.938zm0 0"/></symbol><symbol overflow="visible" id="d"><path d="M5.797-6.063v.938c-.305-.27-.625-.473-.97-.61-.335-.144-.686-.218-1.06-.218-.75 0-1.33.23-1.736.687-.397.46-.592 1.12-.592 1.985 0 .866.195 1.526.593 1.983.408.46.986.688 1.736.688.375 0 .726-.066 1.062-.203.344-.132.664-.343.97-.625V-.5c-.314.21-.642.367-.986.47-.343.1-.714.155-1.11.155-.99 0-1.772-.3-2.343-.906C.784-1.396.5-2.228.5-3.28c0-1.052.285-1.88.86-2.486.57-.613 1.35-.92 2.343-.92.395-.002.766.053 1.11.155.35.104.68.26.984.468zm0 0"/></symbol><symbol overflow="visible" id="e"><path d="M.844-6.844h.812V0H.844zm0 0"/></symbol></defs><g><path fill="#fff" d="M0 0h300v300H0z"/><path d="M187.773 160.328m1.2-2.75l-1.016-.242m2.21-2.508l-2.026-.488m3.227-2.262l-3.043-.73m4.242-2.02l-4.058-.976m5.254-1.774l-5.07-1.22m6.27-1.534l-6.087-1.46m7.28-1.29l-7.096-1.703m7.616.51l-7.535-1.81" stroke="#000" stroke-miterlimit="10" fill="none"/><path d="M187.773 160.328l-20.293 8.402" stroke-width="1.2" stroke="#000" stroke-miterlimit="10" fill="none"/><path d="M202.035 177.035l-7.13-8.35" stroke-width="1.2" stroke="#00f" stroke-miterlimit="10" fill="none"/><path d="M194.906 168.684l-7.133-8.356M167.48 168.73l1.72 21.895" stroke-width="1.2" stroke="#000" stroke-miterlimit="10" fill="none"/><path d="M167.48 168.73l-16.7-14.785-4.05 6.61zm0 0"/><path d="M169.2 190.625l21.355 5.133M190.555 195.758l5.738-9.36" stroke-width="1.2" stroke="#000" stroke-miterlimit="10" fill="none"/><path d="M196.293 186.398l5.742-9.363M202.035 177.035l10.95-.86" stroke-width="1.2" stroke="#00f" stroke-miterlimit="10" fill="none"/><path d="M212.984 176.176l10.95-.86" stroke-width="1.2" stroke="#000" stroke-miterlimit="10" fill="none"/><path d="M199.035 171.535h7v11h-7zm0 0" fill="#fff"/><use xlink:href="#a" x="199.035" y="180.198" fill="#00f"/><path d="M223.934 175.316l9.46-19.82M233.395 155.496l21.894-1.72M235.18 150.172l17.515-1.375M220.957 137.39l12.438 18.106M255.29 153.777l9.46-19.82M264.75 133.957l-12.438-18.105M259.246 135.07l-9.95-14.48M252.313 115.852l-21.895 1.718M230.418 117.57l-9.46 19.82M234.137 121.777l-7.57 15.86" stroke-width="1.2" stroke="#000" stroke-miterlimit="10" fill="none"/><path d="M148.758 157.25l-9.653 5.238" stroke-width="1.2" stroke="#00f" stroke-miterlimit="10" fill="none"/><path d="M139.105 162.488l-9.652 5.235" stroke-width="1.2" stroke="#000" stroke-miterlimit="10" fill="none"/><path d="M141.758 151.75h14v11h-14zm0 0" fill="#fff"/><g fill="#00f"><use xlink:href="#a" x="141.758" y="160.413"/><use xlink:href="#b" x="148.735" y="160.413"/></g><path d="M126.867 167.656l-.29 10.977" stroke-width="1.2" stroke="#000" stroke-miterlimit="10" fill="none"/><path d="M126.578 178.633l-.29 10.98" stroke-width="1.2" stroke="#f00" stroke-miterlimit="10" fill="none"/><path d="M132.035 167.793l-.29 10.977" stroke-width="1.2" stroke="#000" stroke-miterlimit="10" fill="none"/><path d="M131.746 178.77l-.293 10.98" stroke-width="1.2" stroke="#f00" stroke-miterlimit="10" fill="none"/><path d="M129.453 167.723l-18.726-11.48" stroke-width="1.2" stroke="#000" stroke-miterlimit="10" fill="none"/><path d="M124.87 184.18h8v11h-8zm0 0" fill="#fff"/><use xlink:href="#c" x="124.871" y="192.843" fill="#f00"/><path d="M110.727 156.242l.582-21.953M105.62 153.91l.466-17.562M91.422 166.72l19.305-10.478M111.31 134.29l-18.724-11.485M92.586 122.805l-19.31 10.476M93.117 128.395l-15.44 8.382M92.586 122.805l.29-10.977" stroke-width="1.2" stroke="#000" stroke-miterlimit="10" fill="none"/><path d="M92.875 111.828l.29-10.976" stroke-width="1.2" stroke="#0c0" stroke-miterlimit="10" fill="none"/><path d="M73.277 133.28L72.7 155.24M73.277 133.28l-9.36-5.74" stroke-width="1.2" stroke="#000" stroke-miterlimit="10" fill="none"/><path d="M63.918 127.54l-9.363-5.74" stroke-width="1.2" stroke="#00f" stroke-miterlimit="10" fill="none"/><path d="M72.7 155.238l18.722 11.48M77.273 151.98l14.977 9.184M91.422 166.72l-.29 10.975" stroke-width="1.2" stroke="#000" stroke-miterlimit="10" fill="none"/><path d="M91.133 177.695l-.29 10.98M90.844 188.676l-9.653 5.238" stroke-width="1.2" stroke="#f00" stroke-miterlimit="10" fill="none"/><path d="M81.19 193.914l-9.65 5.234" stroke-width="1.2" stroke="#000" stroke-miterlimit="10" fill="none"/><path d="M86.844 183.176h8v11h-8zm0 0" fill="#fff"/><use xlink:href="#c" x="86.844" y="191.839" fill="#f00"/><path d="M54.555 121.8l-9.653 5.24" stroke-width="1.2" stroke="#00f" stroke-miterlimit="10" fill="none"/><path d="M44.902 127.04l-9.652 5.237" stroke-width="1.2" stroke="#000" stroke-miterlimit="10" fill="none"/><path d="M47.555 116.3h14v11h-14zm0 0" fill="#fff"/><g fill="#00f"><use xlink:href="#a" x="47.555" y="124.964"/><use xlink:href="#b" x="54.532" y="124.964"/></g><path d="M88.164 95.352h10v11h-10zm0 0" fill="#fff"/><g fill="#0c0"><use xlink:href="#d" x="88.164" y="104.015"/><use xlink:href="#e" x="94.678" y="104.015"/></g></g></svg>
